X: 13393
T: Flight Of The Folk Mutants Part 1
R: jig
M: 6/8
K: Ddorian
|:Bd^f aeg|^fdA cBA|^G3 d3|_eA=G F3|
E^DE G^FG|A^GA cB=F|BA(_E E)BA|_E6:|
|:D2D FEF|D2D GFE|D2D FED|C2(_A, A,3)|
D2D FEF|D2D GFE|d^GD A_ED|_A,6:|
|:ddd cdd|fdd ddd|fdd gdd|ad^g cdd|
ddd cdd|fdd ddd|a^gd =g^fB|1 F3 G^FB,|2 a^gd =g^fA:|

